icons/file-gif-line.svg

<svg viewBox="0 0 24 24" fill="currentColor" xmlns="http://www.w3.org/2000/svg">
    <path d="M16 2L20.9997 7L21 20.9925C21 21.5489 20.5551 22 20.0066 22H3.9934C3.44476 22 3 21.5447 3 21.0082V2.9918C3 2.44405 3.44749 2 3.9985 2H16ZM15 4H5V20H19V8H15V4ZM13 10V15H12V10H13ZM11 10V11H9C8.44772 11 8 11.4477 8 12V13C8 13.5523 8.44772 14 9 14H10V13H9V12H11V14C11 14.5523 10.5523 15 10 15H9C7.89543 15 7 14.1046 7 13V12C7 10.8954 7.89543 10 9 10H11ZM17 10V11H15V12H17V13H15V15H14V10H17Z"/>
</svg>

<svg xmlns="http://www.w3.org/2000/svg" viewBox="0 0 24 24">
    <g>
        <path fill="none" d="M0 0L24 0 24 24 0 24z"/>
        <path d="M16 2l5 5v13.993c0 .556-.445 1.007-.993 1.007H3.993C3.445 22 3 21.545 3 21.008V2.992C3 2.444 3.447 2 3.999 2H16zm-1 2H5v16h14V8h-4V4zm-2 6v5h-1v-5h1zm-2 0v1H9c-.552 0-1 .448-1 1v1c0 .552.448 1 1 1h1v-1H9v-1h2v2c0 .552-.448 1-1 1H9c-1.105 0-2-.895-2-2v-1c0-1.105.895-2 2-2h2zm6 0v1h-2v1h2v1h-2v2h-1v-5h3z"/>
    </g>
</svg>
